!!!OTL: NUN SAGT EINMAL IHR GAENSCHEN MIR
!!!ARE: Europa, Mitteleuropa, Deutschland
!!!SCT: F0310
!!!YEM: Copyright 1995, estate of Helmut Schaffrath.
**kern
*ICvox
*Ivox
*M2/4
*k[f#]
*G:
{8dd
=1
8.b
16g
8g
8d
=2
8e
8f#
8g}
{8a
=3
8b
8dd
8b
8g
=4
16dd
16ee
8dd
8r}
{8dd
=5
8.b
16g
8g
8d
=6
8e
8f#
8g}
{8a
=7
8b
8dd
8b
8g
=8
16dd
16ee
8dd
8r}
{8dd
=9
16ee
16dd
16cc
16cc
16cc
16b
16a
16g
=10
16f#
16g
16f#
16e
8d}
{8dd
=11
16b
16cc
16dd
16b
16g
16a
16b
16cc
=12
4b
8a
8b
=13
4g
8r}
==
!!!AGN: Jugend - Lied, Belehrung, Tiere
!!!ONB: ESAC (Essen Associative Code) Database: FINK
!!!AMT: simple duple
!!!AIN: vox
!!!EED: Helmut Schaffrath
!!!EEV: 1.0
*-
